X:331
T:Dr. Morrison's Seven Thistles 
C:Joe Buchanan's Scottish Tome - Page 111.0
I:111 0
C:J. Scott Skinner
R:March
Z:Carl Allison
L:1/8
M:4/4
K:A treble
F2 | "A"E3D C2E2 | (A,2E2)(C2E2) | E2A2 cBAF | E2C2 "C#m"C2E2 |
"Bm"F3E D2F2 | (B,2F2)(D2F2) | F2 Bc dcBA | "E"G2E2E2F2 |
"A"E3D C2E2 | (A,2E2)(C2E2) | E2A2 cBAF | E2C2 "C#m"C2E2 |
"D"FG A2 (D2F2) | E2A2c2e2 | "Bm"dcBA "E7"GEed | "A"c2A2A2 |]
(cB) | "A"A2e2c2e2 | A2e2c2e2 | agfe ^decA | e2c2c2 (dc) |
"Bm"B2f2d2f2 | B2f2d2f2 | Bcdc BcBA | G2E2E2 (FG) |
"A"A2e2c2e2 | A2e2c2e2 | agfe "B7"^decA | "E"e2c2c2 (dc) |
"Bm"Bcde fBdB | "A"ABcd eAcA | "Bm"dcBA "E7"GEed | "A"c2A2A2 |]

